!!!COM: Scriabin, Alexander
!!!OTL@@FR: Mazurka en sol mineur
!!!OTL@@EN: Mazurka in G Minor
!!!OPR@@FR: 10 Mazurkas
!!!OPR@@EN: 10 Mazurkas
!!!OPS: 3
!!!ONM: 3
!!!ODT: 1888–1889
!!!AGN: Mazurka
**kern	**kern	**dynam
*staff2	*staff1	*staff1/2
*Ipiano	*Ipiano	*
*clefG2	*clefG2	*
*k[b-e-]	*k[b-e-]	*
*g:	*g:	*
*M3/4	*M3/4	*
=1	=1	=1
4r	4dd	.
.	8qee-/	.
4c 4d 4f#X 4b-	8ddL	.
.	8cc#XJ	.
4c 4d 4f# 4a	4dd	.
=2	=2	=2
4r	8ggL	.
.	8aaJ	.
4B- 4d 4g	4bb-	.
4G 4d 4b-	4gg	.
=3	=3	=3
4r	4aa	.
4G 4A 4c#X 4a	8ggL	.
.	8ffJ	.
4G 4A 4c# 4a	4een	.
=4	=4	=4
.	8qeen/	.
4r	8ddL	.
.	8cc#XJ	.
4F 4A 4d 4a	2dd	.
4F 4A 4d 4a	.	.
=5	=5	=5
*	*^	*
4r	4gg	4rc	.
4F 4G 4B- 4g	8ffL	4b-	.
.	8ee-XJ	.	.
4F 4G 4B- 4g	4dd	4b-	.
*clefF4	*	*	*
=6	=6	=6	=6
.	8qdd/	.	.
4r	8ccL	4rc	.
.	8b-J	.	.
4E- 4G 4c	4cc	4g	.
4E- 4G 4c	4a	4g	.
=7	=7	=7	=7
4r	4dd	4rc	.
4D 4A 4c	8ccL	4f#X	.
.	8b-J	.	.
4D 4A 4c	4a	4f#	.
=8	=8	=8	=8
.	8qdd/	.	.
4r	8ccL	4rc	.
.	8b-J	.	.
4E- 4A 4c	4cc	4g	.
4E- 4A 4c	4a	4g	.
=9	=9	=9	=9
4r	4dd	4rc	.
.	8qee-/	.	.
4D 4A 4c	8ddL	4f#X	.
.	8cc#XJ	.	.
*clefG2	*	*	*
4c 4d 4a	4dd	4rc	.
*	*v	*v	*
=10	=10	=10
4rb	8ggL	.
.	8aaJ	.
4B- 4d 4g	4bb-	.
4G 4d 4b-	4gg	.
=11	=11	=11
4r	4aa	.
4G 4A 4c#X 4a	8ggL	.
.	8ffJ	.
4G 4A 4c# 4a	4een	.
=12	=12	=12
.	8qeen/	.
4r	8ddL	.
.	8cc#XJ	.
4F 4A 4d 4a	2dd	.
4F 4A 4d 4a	.	.
=13	=13	=13
*	*^	*
4r	4gg	4rc	.
4F 4G 4B- 4g	8ffL	4b-	.
.	8ee-XJ	.	.
4F 4G 4B- 4g	4dd	4b-	.
*clefF4	*	*	*
=14	=14	=14	=14
.	8qdd/	.	.
4r	8ccL	4rc	.
.	8b-J	.	.
4E- 4G 4c	4cc	4g	.
4E- 4G 4c	4a	4g	.
=15	=15	=15	=15
4r	4dd	4rc	.
4D 4A 4c	8ccL	4f#X	.
.	8b-J	.	.
4D 4A 4c	4a	4f#	.
=16	=16	=16	=16
.	8qa/	.	.
4r	8gL	4rc	.
.	8f#XJ	.	.
2GG 2D 2G	[2g	2B-	.
*	*v	*v	*
=17	=17	=17
4BB-	8gL]	.
.	8fn	.
8FL	8a	.
8e-J	8ee-J	.
4A 4a	4gg	.
=18	=18	=18
4BB-	8gL	.
.	8f	.
8FL	8a	.
8e-J	8ee-J	.
4A 4a	4gg-X	.
=19	=19	=19
4BB-	8gnL	.
.	8f	.
8FL	8b-	.
8dJ	8ddJ	.
4B- 4b-	4ff	.
=20	=20	=20
4BBn	8gL	.
.	8f	.
8FL	8bn	.
8d	8dd	.
8A-X 8g	8gg	.
8fJ	8ffJ	.
=21	=21	=21
4C	8a-XL	.
.	8g	.
8GL	8cc	.
8e-J	8ee-J	.
4c 4a-X	4aa-X	.
=22	=22	=22
4GG	8a-XL	.
.	8g	.
8FL	8bn	.
8dJ	8ddJ	.
4Bn 4a-X	4aa-X	.
=23	=23	=23
4CC	8a-XL	.
.	8g	.
8GL	8cc	.
8e-J	8ee-	.
4c 4a-X	8aa-X	.
.	8ggJ	.
*clefG2	*	*
=24	=24	=24
8gL	8cccL	.
8ee-J	8eee-	.
4cc 4aa-X	8aaa-X	.
.	8gggJ	.
4gg 4eee-	4cccc 4gggg	.
*clefF4	*	*
=25	=25	=25
4C	8a-XL	.
.	8g	.
8GL	8cc	.
8e-J	8ee-J	.
4c 4a-X	4aa-X	.
=26	=26	=26
4C	8anL	.
.	8g	.
8GL	8cc	.
8e-J	8ee-J	.
4c 4an	4aan	.
=27	=27	=27
*	*^	*
4D	8ccL	4rc	.
.	8b-	.	.
8B-L	8dd	4dd	.
8gJ	8ggJ	.	.
*clefG2	*	*	*
4d 4dd	4bb-	4rc	.
*clefF4	*	*	*
=28	=28	=28	=28
4D	8ccL	4rc	.
.	8b-	.	.
8B-L	8cc#X	4cc#	.
8gJ	8ggJ	.	.
*clefG2	*	*	*
4en 4cc#X	4bb-	4rc	.
*clefF4	*	*	*
=29	=29	=29	=29
4D	8b-L	4rc	.
.	8a	.	.
8AL	8dd	4dd	.
8gJ	8ggJ	.	.
*clefG2	*	*	*
4e-X 4dd	4aa	4rc	.
*clefF4	*	*	*
=30	=30	=30	=30
4D	8b-L	4rc	.
.	8a	.	.
8AL	8cc	4cc	.
8gJ	8ggJ	.	.
*clefG2	*	*	*
4e- 4cc	4aa	4rc	.
*	*v	*v	*
*clefF4	*	*
=31	=31	=31
4D	8ddL	.
.	8cc	.
8AL	8ff#X	.
8f#XJ	8aaJ	.
*clefG2	*	*
4d 4cc	4ddd	.
=32	=32	=32
4r	2.r	.
4d	.	.
4d	.	.
=33	=33	=33
4r	4dd	.
.	8qee-/	.
4c 4d 4f#X 4b-	8ddL	.
.	8cc#XJ	.
4c 4d 4f# 4a	4dd	.
=34	=34	=34
4r	8ggL	.
.	8aaJ	.
4B- 4d 4g	4bb-	.
4G 4d 4b-	4gg	.
=35	=35	=35
4r	4aa	.
4G 4A 4c#X 4a	8ggL	.
.	8ffJ	.
4G 4A 4c# 4a	4een	.
=36	=36	=36
.	8qeen/	.
4r	8ddL	.
.	8cc#XJ	.
4F 4A 4d 4a	2dd	.
4F 4A 4d 4a	.	.
=37	=37	=37
*	*^	*
4r	4gg	4rc	.
4F 4G 4B- 4g	8ffL	4b-	.
.	8ee-XJ	.	.
4F 4G 4B- 4g	4dd	4b-	.
*clefF4	*	*	*
=38	=38	=38	=38
.	8qdd/	.	.
4r	8ccL	4rc	.
.	8b-J	.	.
4E- 4G 4c	4cc	4g	.
4E- 4G 4c	4a	4g	.
=39	=39	=39	=39
4r	4dd	4rc	.
4D 4A 4c	8ccL	4f#X	.
.	8b-J	.	.
4D 4A 4c	4a	4f#	.
=40	=40	=40	=40
.	8qdd/	.	.
4r	8ccL	4rc	.
.	8b-J	.	.
4E- 4A 4c	4cc	4g	.
4E- 4A 4c	4a	4g	.
=41	=41	=41	=41
4r	4dd	4rc	.
.	8qee-/	.	.
4D 4A 4c	8ddL	4f#X	.
.	8cc#XJ	.	.
*clefG2	*	*	*
4c 4d 4a	4dd	4rc	.
*	*v	*v	*
=42	=42	=42
4rb	8ggL	.
.	8aaJ	.
4B- 4d 4g	4bb-	.
4G 4d 4b-	4gg	.
=43	=43	=43
4r	4aa	.
4G 4A 4c#X 4a	8ggL	.
.	8ffJ	.
4G 4A 4c# 4a	4een	.
=44	=44	=44
.	8qeen/	.
4r	8ddL	.
.	8cc#XJ	.
4F 4A 4d 4a	2dd	.
4F 4A 4d 4a	.	.
=45	=45	=45
*	*^	*
4r	4gg	4rc	.
4F 4G 4B- 4g	8ffL	4b-	.
.	8ee-XJ	.	.
4F 4G 4B- 4g	4dd	4b-	.
*clefF4	*	*	*
=46	=46	=46	=46
.	8qdd/	.	.
4r	8ccL	4rc	.
.	8b-J	.	.
4E- 4G 4c	4cc	4g	.
4E- 4G 4c	4a	4g	.
=47	=47	=47	=47
4r	4dd	4rc	.
4D 4A 4c	8ccL	4f#X	.
.	8b-J	.	.
4D 4A 4c	4a	4f#	.
=48	=48	=48	=48
.	8qa/	.	.
4r	8gL	4rc	.
.	8f#XJ	.	.
4GG 4D 4G	4g	4B-	.
4r	4a	4rc	.
=49	=49	=49	=49
*^	*	*	*
4rc	4AA	4aa	4rc	.
8enL	4A	8ggL	4g	.
8dJ	.	8ffnJ	.	.
4c#X	4A	4een	4g	.
*	*	*v	*v	*
=50	=50	=50	=50
.	.	8qeen/	.
2.ryy	4D	8ddL	.
.	.	8cc#XJ	.
.	4A 4g	4dd	.
.	4A 4f	4a	.
=51	=51	=51	=51
*	*	*^	*
4rc	4AA	4aa	4rc	.
8enL	4A	8ggL	4g	.
8dJ	.	8ffJ	.	.
4c#X	4A	4een	4g	.
*	*	*v	*v	*
=52	=52	=52	=52
.	.	8qeen/	.
2.ryy	4D	8ddL	.
.	.	8cc#XJ	.
.	4A 4f	2dd	.
.	4A-X 4f	.	.
=53	=53	=53	=53
*	*	*^	*
4rc	4GG	4gg	4rc	.
8dL	4G	8ffL	4f	.
8cJ	.	8ee-XJ	.	.
4Bn	4G	4dd	4f	.
=54	=54	=54	=54	=54
.	.	8qdd/	.	.
2.ryy	4C	8ccL	4rc	.
.	.	8bnJ	.	.
.	4G 4c	4cc	4e-	.
.	4C#X 4B-X 4e-	4ee-	4g	.
=55	=55	=55	=55	=55
4rc	4DD	4dd	4rc	.
8AL	4D	8ccL	4c	.
8GJ	.	8b-XJ	.	.
4F#X	4D	4a	4c	.
=56	=56	=56	=56	=56
.	.	8qa/	.	.
2.ryy	4GG	8gL	4rc	.
.	.	8f#XJ	.	.
.	4D 4B-	4g	4B-	.
.	4r	4a	4rc	.
=57	=57	=57	=57	=57
4rc	4AA	4aa	4rc	.
8enL	4A	8ggL	4g	.
8dJ	.	8ffnJ	.	.
4c#X	4A	4een	4g	.
*	*	*v	*v	*
=58	=58	=58	=58
.	.	8qeen/	.
2.ryy	4D	8ddL	.
.	.	8cc#XJ	.
.	4A 4g	4dd	.
.	4A 4f	4a	.
=59	=59	=59	=59
*	*	*^	*
4rc	4AA	4aa	4rc	.
8enL	4A	8ggL	4g	.
8dJ	.	8ffJ	.	.
4c#X	4A	4een	4g	.
*	*	*v	*v	*
=60	=60	=60	=60
.	.	8qeen/	.
2.ryy	4D	8ddL	.
.	.	8cc#XJ	.
.	4A 4f	2dd	.
.	4A-X 4f	.	.
=61	=61	=61	=61
*	*	*^	*
4rc	4GG	4gg	4rc	.
8dL	4G	8ffL	4f	.
8cJ	.	8ee-XJ	.	.
4Bn	4G	4dd	4f	.
=62	=62	=62	=62	=62
.	.	8qdd/	.	.
2.ryy	4C	8ccL	4rc	.
.	.	8bnJ	.	.
.	4G 4c	4cc	4e-	.
.	4C#X 4B-X 4e-	4ee-	4g	.
=63	=63	=63	=63	=63
4rc	4DD	4dd	4rc	.
8AL	4D	8ccL	4c	.
8GJ	.	8b-XJ	.	.
4F#X	4D	4a	4c	.
=64	=64	=64	=64	=64
4rc	4DD	4dd	4rc	.
8AL	4D	8ccL	4c	.
8GJ	.	8b-J	.	.
4F#X	4D	4a	4c	.
=65	=65	=65	=65	=65
4rc	4DD	4dd	4rc	.
8AL	4D	8ccL	4c	.
8GJ	.	8b-J	.	.
4F#X	4D	4a	4c	.
*v	*v	*	*	*
*	*v	*v	*
=66	=66	=66
2.r	2dd	.
.	4b-	.
=67	=67	=67
*^	*^	*
4rc	4BB-	4bb-	4rc	.
8fL	4B-	8aa-XL	4a-X	.
8e-J	.	8ggJ	.	.
4d	4B-	4ff	4a-	.
*	*	*v	*v	*
=68	=68	=68	=68
.	.	8qff/	.
2.ryy	4E-	8ee-L	.
.	.	8ddJ	.
.	4B- 4g	4ee-	.
.	4B- 4g	4b-	.
=69	=69	=69	=69
*	*	*^	*
4rc	4BB-	4bb-	4rc	.
8fL	4B-	8aa-XL	4a-X	.
8e-J	.	8ggJ	.	.
4d	4B-	4ff	4a-	.
*	*	*v	*v	*
=70	=70	=70	=70
.	.	8qff/	.
2.ryy	4E-	8ee-L	.
.	.	8ddJ	.
.	4B- 4g	4ee-	.
.	4r	4b-	.
=71	=71	=71	=71
*	*	*^	*
4rc	4BB-	4bb-	4rc	.
8fL	4B-	8aa-XL	4a-X	.
8e-J	.	8ggJ	.	.
4d	4B-	4ff	4a-	.
=72	=72	=72	=72	=72
.	.	8qff/	.	.
2.ryy	4E-	8ee-L	4rc	.
.	.	8ddJ	.	.
.	4B- 4g	4ee-	4rc	.
.	4E- 4B- 4e-	4cc#X	4g	.
=73	=73	=73	=73	=73
2.ryy	4r	4dd	4rc	.
.	4D 4A 4c	8ccnL	4f#X	.
.	.	8b-J	.	.
.	4D 4A 4c	4a	4f#	.
=74	=74	=74	=74	=74
.	.	8qa/	.	.
2.ryy	4r	8gL	4rc	.
.	.	8f#XJ	.	.
.	2GG 2D 2G	2g	2B-	.
*v	*v	*	*	*
*	*v	*v	*
==	==	==
*-	*-	*-
!!!system-decoration: {(*)}
!!!ENC: Bryan Jacob Bell
!!!END: November 2021 to April 2022
!!!PED: Günter Philipp
!!!PTL: Ausgewählte Klavierwerke (Edition Peters)
